X: 1
T: Four Province Fling, The
M: 4/4
L: 1/8
R: hornpipe
K: Dmaj
~f2fe dGBG|GAAd ceed|e~f2e dGBG|1Adag fdde:|2Adag fdd2||
|:DEED FAAd|A~B2d ceez|DEED FA~A2|B/c/d e/f/g fddz:||
